Pods/ProtonCore-UIFoundations/libraries/UIFoundations/Sources/Assets.xcassets/Images/IconSet/ic-plus-circle.imageset/ic-plus-circle.svg

<svg width="24" height="24" viewBox="0 0 24 24" fill="none" xmlns="http://www.w3.org/2000/svg">
<path fill-rule="evenodd" clip-rule="evenodd" d="M18.0527 12C18.0527 12.4142 17.7169 12.75 17.3027 12.75H12.75L12.75 17.3035C12.75 17.7177 12.4142 18.0535 12 18.0535C11.5858 18.0535 11.25 17.7177 11.25 17.3035L11.25 12.75H6.69613C6.28192 12.75 5.94613 12.4142 5.94613 12C5.94613 11.5858 6.28192 11.25 6.69613 11.25H11.25L11.25 6.69686C11.25 6.28265 11.5858 5.94686 12 5.94686C12.4142 5.94686 12.75 6.28265 12.75 6.69686L12.75 11.25H17.3027C17.7169 11.25 18.0527 11.5858 18.0527 12ZM12 21C16.9706 21 21 16.9706 21 12C21 7.02944 16.9706 3 12 3C7.02944 3 3 7.02944 3 12C3 16.9706 7.02944 21 12 21ZM12 22.5C17.799 22.5 22.5 17.799 22.5 12C22.5 6.20101 17.799 1.5 12 1.5C6.20101 1.5 1.5 6.20101 1.5 12C1.5 17.799 6.20101 22.5 12 22.5Z" fill="#0C0C14"/>
</svg>

<svg xmlns="http://www.w3.org/2000/svg" width="24" height="24" viewBox="0 0 24 24">
  <g class="ic-plus-circle">
    <path fill-rule="evenodd" d="M18.053 12a.75.75 0 0 1-.75.75H12.75v4.553a.75.75 0 0 1-1.5 0V12.75H6.696a.75.75 0 0 1 0-1.5h4.554V6.697a.75.75 0 0 1 1.5 0v4.553h4.553a.75.75 0 0 1 .75.75ZM12 21a9 9 0 1 0 0-18 9 9 0 0 0 0 18Zm0 1.5c5.799 0 10.5-4.701 10.5-10.5S17.799 1.5 12 1.5 1.5 6.201 1.5 12 6.201 22.5 12 22.5Z" class="Icon"/>
  </g>
</svg>
